!!!COM: Palestrina, Giovanni Perluigi da
!!!OPR: Missa Beatus Laurentius
!!!OMD: Credo
!!!OTL: Et unam sanctam
**kern	**kern	**kern	**kern	**kern
*Ibass	*Itenor	*Itenor	*Icalto	*Icant
!Bassus	!Tenor 2	!Tenor 1	!Altus	!Cantus
*clefF4	*clefGv2	*clefGv2	*clefG2	*clefG2
*k[]	*k[]	*k[]	*k[]	*k[]
*G:mix	*G:mix	*G:mix	*G:mix	*G:mix
*M4/2	*M4/2	*M4/2	*M4/2	*M4/2
=129	=129	=129	=129	=129
2r	2f#	1d	2a	2dd
2d	2f#	.	2a	2dd
2d	2f#	1r	2a	2dd
2d	2f#	.	2a	2dd
=130	=130	=130	=130	=130
1c	1g	0r	1cc	1ee
2G	2g	.	2b	2dd
2B	2d	.	2g	2dd
=131	=131	=131	=131	=131
2.A	2e	1r	2.a	2.cc
.	2f#	.	.	.
4A	.	.	4a	4cc
2G	2g	2r	2d	2b
2G	2G	2d	2g	2b
=132	=132	=132	=132	=132
2G	2B	2d	2g	2b
2G	2B	2d	2g	2b
2.F	2.A	2.f	2.a	2.cc
4F	4A	4f	4a	4cc
=133	=133	=133	=133	=133
2C	2c	2e	2g	2cc
2E	2c	2g	2e	2cc
2.D	2c	2.f	2a	2dd
.	2B	.	2d	2dd
4D	.	4f	.	.
=134	=134	=134	=134	=134
1C	1c	2e	2g	2ee
.	.	2e	2cc	2gg
1r	1r	2.e	2b	2.gg
.	.	.	2g	.
.	.	4d	.	4ff
=135	=135	=135	=135	=135
0r	0r	2c	2a	2ee
.	.	2B	2b	2dd
.	.	2.A	4cc	4ee
.	.	.	4b	4dd
.	.	.	4a	4cc
.	.	8B	4g	4b
.	.	8c	.	.
=136	=136	=136	=136	=136
0r	0r	2d	2f#	2a
.	.	2A	2a	2cc
.	.	2e	2g#	2b
.	.	2e	2g#	2b
=137	=137	=137	=137	=137
2.A	2.e	2r	2.a	2.cc#
.	.	2A	.	.
4A	4e	.	4a	4cc#
2D	2f	2A	2a	2dd
2D	2f	4d	2a	2dd
.	.	4d	.	.
=138	=138	=138	=138	=138
1A	1e	1c#	1a	1ee
1D	2d	1d	1a	1ff
.	[2A	.	.	.
=139	=139	=139	=139	=139
2A	2A]	2e	2cc	2ee
2G#	2B	2e	2b	2ee
1A	1c	1e	[1a	1ee
=140	=140	=140	=140	=140
1E	1B	1e	2a]	1ee
.	.	.	2g#	.
2r	2r	2r	2r	2r
[2A	[2c#	[2e	[2a	[2ee
=141	=141	=141	=141	=141
2A]	2c#]	2e]	2a]	2ee]
2D	2d	2f#	2a	2dd
1G	1B	1g	1d	1dd
=142	=142	=142	=142	=142
1C	1c	1e	1g	1ee
2.c	2.e	1r	2.g	2.cc
4B	4d	.	4g	4dd
=143	=143	=143	=143	=143
2c	2c	0r	2g	2ee
2A	2c	.	2a	2ff
2G	2d	.	2b	2gg
2c	2e	.	[2cc	2g
=144	=144	=144	=144	=144
1.F	1.f	0r	2cc]	2.a
.	.	.	2cc	.
.	.	.	.	4b
.	.	.	2.a	2cc
2F	2f	.	.	2cc
.	.	.	4g	.
=145	=145	=145	=145	=145
1F	1c	1r	1f	1a
1C	1c	2r	2e	2g
.	.	2e	2g	2cc
=146	=146	=146	=146	=146
0r	0r	1c	1cc	1ee
.	.	2g	2b	2dd
.	.	2c	2cc	2ee
=147	=147	=147	=147	=147
0r	0r	2d	2a	2ff
.	.	2e	2g	2ee
.	.	2A	2a	2ee
.	.	2d	2f	2dd
=148	=148	=148	=148	=148
2r	2r	0c	2e	1ee
2A	2c	.	2e	.
1F	1f	.	1a	1r
=149	=149	=149	=149	=149
2c	2e	2r	2g	0r
2F	2f	2c	2a	.
2G	2d	2g	2b-	.
2A	2c	2e	2a	.
=150	=150	=150	=150	=150
2D	2d	2f	2a	1r
2E	2B	2e	2g#	.
1F	2A	[1c	2a	2r
.	4c	.	2f	4a
.	4d	.	.	4b
=151	=151	=151	=151	=151
0C	4e	1c]	4g	4cc
.	4f	.	4f	4dd
.	4g	.	4e	4ee
.	4f	.	4d	4ff
.	4e	2r	2c	4gg
.	4d	.	.	4ff
.	2c	4G	2cc	2ee
.	.	4A	.	.
=152	=152	=152	=152	=152
0G	1d	4B	2.b	2dd
.	.	4c	.	.
.	.	4d	.	4g
.	.	4c	4a	4a
.	4G	4B	2g	4b
.	4A	4A	.	4cc
.	4B	2G	[2g	4dd
.	4c	.	.	4ee
=153	=153	=153	=153	=153
0D	0d	0A	2g]	0dd
.	.	.	4f#	.
.	.	.	4e	.
.	.	.	1f#	.
=154	=154	=154	=154	=154
0G	0d	0G	0g	0b
==	==	==	==	==
*-	*-	*-	*-	*-
!!!CDT: 1525/^1526/-1594/2/2
!!!OCY: Italia
!!!AGN: Mass (Paraphrase)
!!!AST: renaissance, vocal
!!!ASW: Antiphon
!!!PWK: Masses, Book 8
!!!RNB: Cadence finals: C
!!!YOR: Le Opere Complete, v. 24, p. 194
!!!YOO: Rome, Italy: Fratelli Scalera
!!!END: 1992//
!!!EED: John Miller
!!!YEC: Copyright 2000, John Miller
!!!YEN: United States of America
!!!YEM: Rights to all derivative electronic formats reserved.
!!!YEM: Refer to licensing agreement for further details.
!!!YEM: This file must be accompanied by the licensing agreement.
!!!YEM: A copy of the licensing agreement may be found at http://www.music-cog.ohio-state.edu/HumdrumDatabases/Palestrina/license.txt
!!!EMD: converted to Humdrum by Bret Aarden
